svgs/sharp-light/martini-glass.svg

<svg xmlns="http://www.w3.org/2000/svg" viewBox="0 0 512 512"><!--! Font Awesome Pro 6.6.0 by @fontawesome - https://fontawesome.com License - https://fontawesome.com/license (Commercial License) Copyright 2024 Fonticons, Inc. --><path d="M157.3 160L256 258.7 354.7 160l-197.5 0zm-31.8-31.8c.8-.1 1.7-.2 2.5-.2l256 0c.9 0 1.7 .1 2.5 .2L480 34.7l0-2.7L32 32l0 2.7 93.5 93.5zM480 0l32 0 0 32 0 16L278.6 281.4 272 288l0 192 96 0 16 0 0 32-16 0-112 0-112 0-16 0 0-32 16 0 96 0 0-192-6.6-6.6L0 48 0 32 0 0 32 0 480 0z"/></svg>

<svg xmlns="http://www.w3.org/2000/svg" viewBox="0 0 512 512"><!--! Font Awesome Pro 6.4.0 by @fontawesome - https://fontawesome.com License - https://fontawesome.com/license (Commercial License) Copyright 2023 Fonticons, Inc. --><path d="M157.3 160L256 258.7 354.7 160H157.3zm-31.8-31.8c.8-.1 1.7-.2 2.5-.2H384c.9 0 1.7 .1 2.5 .2L480 34.7V32H32v2.7l93.5 93.5zM480 0h32V32 48L278.6 281.4 272 288V480h96 16v32H368 256 144 128V480h16 96V288l-6.6-6.6L0 48V32 0H32 480z"/></svg>
